X: 36037
T: Scarce O' Tatties
R: jig
M: 6/8
K: Amixolydian
Ace efg|edB dBG|Ace efg|edB Ace|
~a3 gag|faf ecA|Ace efg|1 edB A2 A:|2 edB A2 a||
aeg a2 f|gaf ecA|aeg a2 f|gaf e3|
efe Ace|def fed|Ace efg|1 edB A2 a:|2 edB A2 A||

